!!!SOCIAL_FUNCTION:	songs connected with stories
!!!PDT:	1943
!!!OTL: No_72_Song_With_Story_of_the_From_Woman.krn
!!!REG: British Columbia
**kern
*staff1
=1-
*clefF4
*k[b-e-a-d-]
*M3/4
4..F\
16F\
8A-\L
8c\J
=2||
*M2/4
4B-\
8c\L
8B-\J
=3||
*M3/4
4A-\
4B-\
4r
=4
2F\
8.A-\L
16c\Jk
=5||
*M2/4
8B-\
8r
8A-\L
8F\J
=6||
*M3/4
4E-\
4F\
4r
=7
4E-\
4F\
8A-\L
16.F\L
32F\JJk
=8||
*M2/4
4F\
8A-\L
8F\J
=9
4E-\
4C/
=10
4r
8C\L
16.E-\L
32F\JJk
=11
4F\
8F\
8r
=12
4A-\
4F\
=13
4E-\
4F\
==
*-
